X: 1
T: Washington's March No. 1
O: < 1784
R: march
Z: 2011 John Chambers <jc:trillian.mit.edu>
S: http://www.americanrevolution.org/washingtonsmusic.html
M: C
L: 1/8
K: G
D2 |\
G2 G>G GB dB | A>G AB A2 G>A | B>A Bc Bc dc | B2 G>G G2 :|
|: g>=f |\
e2 c>c c2 {a}g^f/e/ | d2 B>B B2 e>d | c2 A>A A2 {f}ed/c/ |
B2 G>G G2 d>c | (3Bcd (3efg B2 A2 | G2 G>G G2 :|
|: ga |\
(3gab G>G G2 ga | (3gab G>G G2 g>=f | e=f ga g2 f2 | e2 e>e e^f ge |
dc de dg bd | cB cd cf ac | BA Bc B2 A2 | G2 G>G G2 :|
